static/images/2020/kubernetes-intro/deployment(2).svg

<svg xmlns="http://www.w3.org/2000/svg" xmlns:xlink="http://www.w3.org/1999/xlink" width="741" height="321" viewBox="-0.5 -0.5 741 321"><rect width="220" height="320" rx="33" ry="33" fill="#f5f5f5" stroke="#666" pointer-events="all"/><switch transform="translate(-.5 -.5)"><foreignObject style="text-align:left" pointer-events="none" width="100%" height="100%" requiredFeatures="http://www.w3.org/TR/SVG11/feature#Extensibility" overflow="visible"><div xmlns="http://www.w3.org/1999/xhtml" style="align-items:unsafe center;justify-content:unsafe center;width:218px;height:1px;padding-top:160px;margin-left:1px" display="flex"><div style="box-sizing:border-box;text-align:center" font-size="0"><div style="line-height:1.2;white-space:normal;word-wrap:normal" display="inline-block" font-size="12" font-family="Helvetica" color="#333" pointer-events="all"><div><b>Deployment</b></div><div>name: echo</div><div>labels: app=echo</div><div>replicas=2</div><div><br/></div><div><br/></div><div><br/></div><div><br/></div><div><br/></div><div><br/></div><div><br/></div><div><br/></div><div><br/></div><div><br/></div><div><br/></div><div><br/></div><div><br/></div><div><br/></div><div><br/></div><div><br/></div></div></div></div></foreignObject><text x="110" y="164" fill="#333" font-family="Helvetica" font-size="12" text-anchor="middle">Deployment...</text></switch><rect x="10" y="90" width="200" height="100" rx="15" ry="15" fill="#dae8fc" stroke="#6c8ebf" pointer-events="all"/><switch transform="translate(-.5 -.5)"><foreignObject style="text-align:left" pointer-events="none" width="100%" height="100%" requiredFeatures="http://www.w3.org/TR/SVG11/feature#Extensibility" overflow="visible"><div xmlns="http://www.w3.org/1999/xhtml" style="align-items:unsafe center;justify-content:unsafe center;width:198px;height:1px;padding-top:140px;margin-left:11px" display="flex"><div style="box-sizing:border-box;text-align:center" font-size="0"><div style="line-height:1.2;white-space:normal;word-wrap:normal" display="inline-block" font-size="12" font-family="Helvetica" color="#000" pointer-events="all"><div><b>Pod</b></div><div>name: echo</div><div>image: k8s.gcr.io/echoserver:1.4</div><div>resources: 100MB RAM, 0.5 CPU</div><div>labels: app=echo<br/></div></div></div></div></foreignObject><text x="110" y="144" font-family="Helvetica" font-size="12" text-anchor="middle">Pod...</text></switch><rect x="10" y="200" width="200" height="100" rx="15" ry="15" fill="#dae8fc" stroke="#6c8ebf" pointer-events="all"/><switch transform="translate(-.5 -.5)"><foreignObject style="text-align:left" pointer-events="none" width="100%" height="100%" requiredFeatures="http://www.w3.org/TR/SVG11/feature#Extensibility" overflow="visible"><div xmlns="http://www.w3.org/1999/xhtml" style="align-items:unsafe center;justify-content:unsafe center;width:198px;height:1px;padding-top:250px;margin-left:11px" display="flex"><div style="box-sizing:border-box;text-align:center" font-size="0"><div style="line-height:1.2;white-space:normal;word-wrap:normal" display="inline-block" font-size="12" font-family="Helvetica" color="#000" pointer-events="all"><div><b>Pod</b></div><div>name: echo</div><div>image: k8s.gcr.io/echoserver:1.4</div><div>resources: 100MB RAM, 0.5 CPU</div><div>labels: app=echo<br/></div></div></div></div></foreignObject><text x="110" y="254" font-family="Helvetica" font-size="12" text-anchor="middle">Pod...</text></switch><path d="M290 140h-73.63" fill="none" stroke="#000" stroke-miterlimit="10" pointer-events="stroke"/><path d="M211.12 140l7-3.5-1.75 3.5 1.75 3.5z" stroke="#000" stroke-miterlimit="10" pointer-events="all"/><path d="M290 165h-40v85h-33.63" fill="none" stroke="#000" stroke-miterlimit="10" pointer-events="stroke"/><path d="M211.12 250l7-3.5-1.75 3.5 1.75 3.5z" stroke="#000" stroke-miterlimit="10" pointer-events="all"/><rect x="290" y="90" width="200" height="100" rx="15" ry="15" fill="#dae8fc" stroke="#6c8ebf" pointer-events="all"/><switch transform="translate(-.5 -.5)"><foreignObject style="text-align:left" pointer-events="none" width="100%" height="100%" requiredFeatures="http://www.w3.org/TR/SVG11/feature#Extensibility" overflow="visible"><div xmlns="http://www.w3.org/1999/xhtml" style="align-items:unsafe center;justify-content:unsafe center;width:198px;height:1px;padding-top:140px;margin-left:291px" display="flex"><div style="box-sizing:border-box;text-align:center" font-size="0"><div style="line-height:1.2;white-space:normal;word-wrap:normal" display="inline-block" font-size="12" font-family="Helvetica" color="#000" pointer-events="all"><div><b>Service</b></div><div>name: echo</div><div>match: app-echo<br/></div><div>portFrom, To: 8080, 8080<br/></div><div>Listening IP: 10.10.10.10<br/></div></div></div></div></foreignObject><text x="390" y="144" font-family="Helvetica" font-size="12" text-anchor="middle">Service...</text></switch><path d="M540 140h-43.63" fill="none" stroke="#000" stroke-miterlimit="10" pointer-events="stroke"/><path d="M491.12 140l7-3.5-1.75 3.5 1.75 3.5z" stroke="#000" stroke-miterlimit="10" pointer-events="all"/><rect x="540" y="90" width="200" height="100" rx="15" ry="15" fill="#dae8fc" stroke="#6c8ebf" pointer-events="all"/><switch transform="translate(-.5 -.5)"><foreignObject style="text-align:left" pointer-events="none" width="100%" height="100%" requiredFeatures="http://www.w3.org/TR/SVG11/feature#Extensibility" overflow="visible"><div xmlns="http://www.w3.org/1999/xhtml" style="align-items:unsafe center;justify-content:unsafe center;width:198px;height:1px;padding-top:140px;margin-left:541px" display="flex"><div style="box-sizing:border-box;text-align:center" font-size="0"><div style="line-height:1.2;white-space:normal;word-wrap:normal" display="inline-block" font-size="12" font-family="Helvetica" color="#000" pointer-events="all"><div><b>Ingress</b></div><div>name: echo</div><div>service: echo<br/></div><div>host: echo.example.com<br/></div><div>type: HTTP<br/></div></div></div></div></foreignObject><text x="640" y="144" font-family="Helvetica" font-size="12" text-anchor="middle">Ingress...</text></switch><image x="239.5" y="120.5" width="38" height="38" xlink:href="https://cdn3.iconfinder.com/data/icons/flat-office-icons-1/140/Artboard_1-6-128.png" preserveAspectRatio="none"/><switch><a transform="translate(0 -5)" xlink:href="https://www.diagrams.net/doc/faq/svg-export-text-problems" target="_blank"><text text-anchor="middle" font-size="10" x="50%" y="100%">Viewer does not support full SVG 1.1</text></a></switch></svg>

<?xml version="1.0" encoding="UTF-8"?>
<!DOCTYPE svg PUBLIC "-//W3C//DTD SVG 1.1//EN" "http://www.w3.org/Graphics/SVG/1.1/DTD/svg11.dtd">
<svg xmlns="http://www.w3.org/2000/svg" xmlns:xlink="http://www.w3.org/1999/xlink" version="1.1" width="741px" height="321px" viewBox="-0.5 -0.5 741 321"><defs/><g><rect x="0" y="0" width="220" height="320" rx="33" ry="33" fill="#f5f5f5" stroke="#666666" pointer-events="all"/><g transform="translate(-0.5 -0.5)"><switch><foreignObject style="overflow: visible; text-align: left;" pointer-events="none" width="100%" height="100%" requiredFeatures="http://www.w3.org/TR/SVG11/feature#Extensibility"><div xmlns="http://www.w3.org/1999/xhtml" style="display: flex; align-items: unsafe center; justify-content: unsafe center; width: 218px; height: 1px; padding-top: 160px; margin-left: 1px;"><div style="box-sizing: border-box; font-size: 0; text-align: center; "><div style="display: inline-block; font-size: 12px; font-family: Helvetica; color: #333333; line-height: 1.2; pointer-events: all; white-space: normal; word-wrap: normal; "><div><b>Deployment</b></div><div>name: echo</div><div>labels: app=echo</div><div>replicas=2</div><div><br /></div><div><br /></div><div><br /></div><div><br /></div><div><br /></div><div><br /></div><div><br /></div><div><br /></div><div><br /></div><div><br /></div><div><br /></div><div><br /></div><div><br /></div><div><br /></div><div><br /></div><div><br /></div></div></div></div></foreignObject><text x="110" y="164" fill="#333333" font-family="Helvetica" font-size="12px" text-anchor="middle">Deployment...</text></switch></g><rect x="10" y="90" width="200" height="100" rx="15" ry="15" fill="#dae8fc" stroke="#6c8ebf" pointer-events="all"/><g transform="translate(-0.5 -0.5)"><switch><foreignObject style="overflow: visible; text-align: left;" pointer-events="none" width="100%" height="100%" requiredFeatures="http://www.w3.org/TR/SVG11/feature#Extensibility"><div xmlns="http://www.w3.org/1999/xhtml" style="display: flex; align-items: unsafe center; justify-content: unsafe center; width: 198px; height: 1px; padding-top: 140px; margin-left: 11px;"><div style="box-sizing: border-box; font-size: 0; text-align: center; "><div style="display: inline-block; font-size: 12px; font-family: Helvetica; color: #000000; line-height: 1.2; pointer-events: all; white-space: normal; word-wrap: normal; "><div><b>Pod</b></div><div>name: echo</div><div>image: k8s.gcr.io/echoserver:1.4</div><div>resources: 100MB RAM, 0.5 CPU</div><div>labels: app=echo<br /></div></div></div></div></foreignObject><text x="110" y="144" fill="#000000" font-family="Helvetica" font-size="12px" text-anchor="middle">Pod...</text></switch></g><rect x="10" y="200" width="200" height="100" rx="15" ry="15" fill="#dae8fc" stroke="#6c8ebf" pointer-events="all"/><g transform="translate(-0.5 -0.5)"><switch><foreignObject style="overflow: visible; text-align: left;" pointer-events="none" width="100%" height="100%" requiredFeatures="http://www.w3.org/TR/SVG11/feature#Extensibility"><div xmlns="http://www.w3.org/1999/xhtml" style="display: flex; align-items: unsafe center; justify-content: unsafe center; width: 198px; height: 1px; padding-top: 250px; margin-left: 11px;"><div style="box-sizing: border-box; font-size: 0; text-align: center; "><div style="display: inline-block; font-size: 12px; font-family: Helvetica; color: #000000; line-height: 1.2; pointer-events: all; white-space: normal; word-wrap: normal; "><div><b>Pod</b></div><div>name: echo</div><div>image: k8s.gcr.io/echoserver:1.4</div><div>resources: 100MB RAM, 0.5 CPU</div><div>labels: app=echo<br /></div></div></div></div></foreignObject><text x="110" y="254" fill="#000000" font-family="Helvetica" font-size="12px" text-anchor="middle">Pod...</text></switch></g><path d="M 290 140 L 216.37 140" fill="none" stroke="#000000" stroke-miterlimit="10" pointer-events="stroke"/><path d="M 211.12 140 L 218.12 136.5 L 216.37 140 L 218.12 143.5 Z" fill="#000000" stroke="#000000" stroke-miterlimit="10" pointer-events="all"/><path d="M 290 165 L 250 165 L 250 250 L 216.37 250" fill="none" stroke="#000000" stroke-miterlimit="10" pointer-events="stroke"/><path d="M 211.12 250 L 218.12 246.5 L 216.37 250 L 218.12 253.5 Z" fill="#000000" stroke="#000000" stroke-miterlimit="10" pointer-events="all"/><rect x="290" y="90" width="200" height="100" rx="15" ry="15" fill="#dae8fc" stroke="#6c8ebf" pointer-events="all"/><g transform="translate(-0.5 -0.5)"><switch><foreignObject style="overflow: visible; text-align: left;" pointer-events="none" width="100%" height="100%" requiredFeatures="http://www.w3.org/TR/SVG11/feature#Extensibility"><div xmlns="http://www.w3.org/1999/xhtml" style="display: flex; align-items: unsafe center; justify-content: unsafe center; width: 198px; height: 1px; padding-top: 140px; margin-left: 291px;"><div style="box-sizing: border-box; font-size: 0; text-align: center; "><div style="display: inline-block; font-size: 12px; font-family: Helvetica; color: #000000; line-height: 1.2; pointer-events: all; white-space: normal; word-wrap: normal; "><div><b>Service</b></div><div>name: echo</div><div>match: app-echo<br /></div><div>portFrom, To: 8080, 8080<br /></div><div>Listening IP: 10.10.10.10<br /></div></div></div></div></foreignObject><text x="390" y="144" fill="#000000" font-family="Helvetica" font-size="12px" text-anchor="middle">Service...</text></switch></g><path d="M 540 140 L 496.37 140" fill="none" stroke="#000000" stroke-miterlimit="10" pointer-events="stroke"/><path d="M 491.12 140 L 498.12 136.5 L 496.37 140 L 498.12 143.5 Z" fill="#000000" stroke="#000000" stroke-miterlimit="10" pointer-events="all"/><rect x="540" y="90" width="200" height="100" rx="15" ry="15" fill="#dae8fc" stroke="#6c8ebf" pointer-events="all"/><g transform="translate(-0.5 -0.5)"><switch><foreignObject style="overflow: visible; text-align: left;" pointer-events="none" width="100%" height="100%" requiredFeatures="http://www.w3.org/TR/SVG11/feature#Extensibility"><div xmlns="http://www.w3.org/1999/xhtml" style="display: flex; align-items: unsafe center; justify-content: unsafe center; width: 198px; height: 1px; padding-top: 140px; margin-left: 541px;"><div style="box-sizing: border-box; font-size: 0; text-align: center; "><div style="display: inline-block; font-size: 12px; font-family: Helvetica; color: #000000; line-height: 1.2; pointer-events: all; white-space: normal; word-wrap: normal; "><div><b>Ingress</b></div><div>name: echo</div><div>service: echo<br /></div><div>host: echo.example.com<br /></div><div>type: HTTP<br /></div></div></div></div></foreignObject><text x="640" y="144" fill="#000000" font-family="Helvetica" font-size="12px" text-anchor="middle">Ingress...</text></switch></g><image x="239.5" y="120.5" width="38" height="38" xlink:href="https://cdn3.iconfinder.com/data/icons/flat-office-icons-1/140/Artboard_1-6-128.png" preserveAspectRatio="none"/></g><switch><g requiredFeatures="http://www.w3.org/TR/SVG11/feature#Extensibility"/><a transform="translate(0,-5)" xlink:href="https://www.diagrams.net/doc/faq/svg-export-text-problems" target="_blank"><text text-anchor="middle" font-size="10px" x="50%" y="100%">Viewer does not support full SVG 1.1</text></a></switch></svg>
